X:1
T:Title
%%score { ( 1 3 ) | ( 2 4 5 ) }
L:1/8
M:4/4
K:Bb
V:1 treble nm="Grand Piano"
V:3 treble 
V:2 bass 
V:4 bass 
V:5 bass 
V:1
 z4 z2[Q:1/4=100] [DF]2 | [Fd]2 [Ec]2 [DB] [DB]3 | [EA]2 [EG]2 [DF]>G A>B | A6 z2 | d6 z2 | %5
 [Fd]2 [Ec]2 [DB]3 [B,FB] | [B,EA]2 [G,B,EG]2 [B,DF]>[B,D=E] [B,DF]>[DFG] | %7
 [CFA]2 [=EB]2 [Fc]2 [Ed]2 | c6 c>d | e>d e>d c>=B c>_d | [Fd]>[=Ec] [Fd]>[_Ec] [DB]2 [FB]>[FA] | %11
 G>^F G>A [=EB]>G A>B | c>=B c>d c2 d>e | f2 d2 [Ec] [DB]3 | [Fd]>[Fc] (3[GB][FA][EG] [DF]2 [DF]2 | %15
 [EG]>[GB] [GB]>[Ge] [Fd]2 [Ec]2 |[M:3/4] [DB]6 |[M:1/4] [DB]2 |[M:4/4] [EA]2 [Fe]2 [Ae] [Ae]3 | %19
 G>A G>A F2 [DFB]2 | z4 c4 | d6 z2 | G>^F G>[GB] .[Ge]2 [B,GB]>[B,EG] | %23
[M:35/32] [DF]>[_D=E][=DF]>[DB][Fd]-[Fd]/4-(3:2:9[Fd]-[Fd]/4-[Fd]/16 z3/8 z/16 [Fd]3/8-[Fd]/16 z3/8 z/16 (3:2:4[Fc]3/2-[Fc]/4[FB]3/4-[FB]/8 | %24
[M:4/4] z4 (5:4:5[Af]2 [Ge]/ d/-d3/2c/ |[M:3/4] [DB]6 |] %26
V:2
 z4 z2 [B,,B,]2 | [B,,B,]2 [B,,F,]2 [B,,F,] [B,,B,]3 | [E,B,]2 [E,B,]2 [B,,B,]2 z2 | %3
 z z/ [F,C]/ [F,C]>[F,C] [F,C]2 z2 | z z/ [B,,B,]/ [B,,B,]>[B,,B,] [B,,B,]2 [B,,B,]2 | %5
 [B,,B,]2 [B,,F,]2 [B,,F,]3 D, | E,2 E,2 z4 | C,2 [C,G,]2 [C,A,]2 [C,B,]2 | %8
 [F,A,F]6 [F,A,F]>[F,B,F] | [F,CF]>[F,=B,F] [F,CF]>[F,_B,F] [F,A,F]>[F,_A,F] [F,=A,F]>[F,A,F] | %10
 [B,,B,]>[B,,B,] [B,,B,]>[B,,B,] [B,,B,]2 [D,B,]>[D,B,] | %11
 [E,B,E]>[E,A,E] [E,B,E]>[E,CE] [C,C]>[K:treble][B,C=E] [A,CE]>[G,CE] | z4 z2 [B,F]2 | %13
 [B,DF]2 [B,F]2[K:bass] [B,,F,] [B,,F,]3 | [B,,B,]>[D,B,] (3:2:2[E,E]2 [E,B,] [B,,B,]2 [B,,B,]2 | %15
 [E,B,]>[E,B,] [E,B,]>[E,B,] [F,B,]2 [F,A,]2 |[M:3/4] [B,,B,]6 |[M:1/4] [B,,B,]2 | %18
[M:4/4] [F,C]2 [F,A,]2 [F,C] [F,C]3 | [F,A,E]>[F,A,E] [F,A,E]>[F,A,E] [B,D]2 B,,2 | %20
 F, .[F,C]3 [F,A,F] .[F,A,]3 | [B,,B,]>[B,,B,] [B,,B,]>[B,,B,] [B,,B,]2 [D,B,]2 | %22
 [E,B,E]>[E,A,E] [E,B,E]>[E,B,] (3z[K:treble] dc (3z A.G[K:bass] | %23
[M:35/32] [B,,B,]>[B,,B,][B,,B,]>[B,,B,][B,,B,]-[B,,B,]/4-(3:2:9[B,,B,]-[B,,B,]/4-[B,,B,]/16 z3/8 z/16 [B,,B,]3/8-[B,,B,]/16 z3/8 z/16 (3:2:4[C,A,]3/2-[C,A,]/4[D,B,]3/4-[D,B,]/8 | %24
[M:4/4] z4 (5:4:5[F,C]2 [F,A,]/ [F,B,F]/-[F,B,F]3/2[F,E]/ |[M:3/4] [B,,F,]6 |] %26
V:3
 x8 | x8 | x8 | z z/ E/ E>E E>B c>e | z z/ F/ F>F F2 [DF]2 | x8 | x8 | x8 | x8 | x8 | x8 | x8 | %12
 x8 | x8 | x8 | x8 |[M:3/4] x6 |[M:1/4] x2 |[M:4/4] x8 | x8 | [CFA] .[Af]3 z F2 c | %21
 F>F F>F F2 [FB]2 | x8 |[M:35/32] x35/4 |[M:4/4] (3:2:2[FA]3/2[Af]3/2- [Af]2- [Af]/4 z/4 z/ z z2 | %25
[M:3/4] x6 |] %26
V:4
 x8 | x8 | x8 | x8 | x8 | x8 | z z/ F,/ z z/ A,/ B,,>B,, B,,>B,, | x8 | x8 | x8 | x8 | %11
 x11/2[K:treble] x5/2 | [F,A,F]>[F,_A,F] [F,=A,F]>[F,B,F] [F,A,F]2 z z/ C/ | x4[K:bass] x4 | x8 | %15
 x8 |[M:3/4] x6 |[M:1/4] x2 |[M:4/4] x8 | x8 | x8 | x8 | z4 B,2[K:treble] z z/[K:bass] E,/ | %23
[M:35/32] x35/4 |[M:4/4] (3:2:2[F,C]3/2[F,C]3/2- [F,C]2- [F,C]/4 z/4 z/ z z2 |[M:3/4] x6 |] %26
V:5
 x8 | x8 | x8 | x8 | x8 | x8 | x8 | x8 | x8 | x8 | x8 | x11/2[K:treble] x5/2 | x8 | x4[K:bass] x4 | %14
 x8 | x8 |[M:3/4] x6 |[M:1/4] x2 |[M:4/4] x8 | x8 | x8 | x8 | z4 E,2[K:treble] E,2[K:bass] | %23
[M:35/32] x35/4 |[M:4/4] x8 |[M:3/4] x6 |] %26

